src/assets/svg/google.svg

<svg width="80" height="80" viewBox="0 0 80 80" fill="none" xmlns="http://www.w3.org/2000/svg">
<g style="mix-blend-mode:luminosity" opacity="0.7">
<path fill-rule="evenodd" clip-rule="evenodd" d="M70.72 40.7276C70.72 38.4585 70.5164 36.2767 70.1382 34.1821H40V46.5603H57.2218C56.48 50.5603 54.2254 53.9494 50.8364 56.2185V64.2476H61.1782C67.2291 58.6767 70.72 50.473 70.72 40.7276Z" fill="#4285F4"/>
<path fill-rule="evenodd" clip-rule="evenodd" d="M39.9997 72.0001C48.6397 72.0001 55.8833 69.1346 61.1779 64.2473L50.836 56.2183C47.9706 58.1383 44.3051 59.2728 39.9997 59.2728C31.6651 59.2728 24.6106 53.6437 22.0942 46.0801H11.4033V54.371C16.6688 64.8292 27.4906 72.0001 39.9997 72.0001Z" fill="#34A853"/>
<path fill-rule="evenodd" clip-rule="evenodd" d="M22.0945 46.0803C21.4545 44.1603 21.0909 42.1094 21.0909 40.0003C21.0909 37.8912 21.4545 35.8403 22.0945 33.9203V25.6294H11.4036C9.23636 29.9494 8 34.8367 8 40.0003C8 45.1639 9.23636 50.0512 11.4036 54.3712L22.0945 46.0803Z" fill="#FBBC05"/>
<path fill-rule="evenodd" clip-rule="evenodd" d="M39.9997 20.7273C44.6979 20.7273 48.916 22.3418 52.2324 25.5127L61.4106 16.3345C55.8688 11.1709 48.6251 8 39.9997 8C27.4906 8 16.6688 15.1709 11.4033 25.6291L22.0942 33.92C24.6106 26.3564 31.6651 20.7273 39.9997 20.7273Z" fill="#EA4335"/>
</g>
</svg>

<svg xmlns="http://www.w3.org/2000/svg" width="80" height="80" fill="none"><g fill-rule="evenodd" clip-rule="evenodd" opacity=".7" style="mix-blend-mode:luminosity"><path fill="#4285F4" d="M70.72 40.728c0-2.27-.204-4.451-.582-6.546H40V46.56h17.222c-.742 4-2.997 7.39-6.386 9.658v8.03h10.342c6.051-5.571 9.542-13.775 9.542-23.52Z"/><path fill="#34A853" d="M40 72c8.64 0 15.883-2.865 21.178-7.753l-10.342-8.029c-2.865 1.92-6.53 3.055-10.836 3.055-8.335 0-15.39-5.63-17.906-13.193h-10.69v8.291C16.668 64.829 27.49 72.001 40 72.001Z"/><path fill="#FBBC05" d="M22.095 46.08A19.236 19.236 0 0 1 21.09 40c0-2.109.363-4.16 1.003-6.08v-8.29h-10.69A31.988 31.988 0 0 0 8 40c0 5.164 1.236 10.051 3.404 14.371l10.69-8.29Z"/><path fill="#EA4335" d="M40 20.727c4.698 0 8.916 1.615 12.232 4.786l9.179-9.179C55.869 11.171 48.625 8 40 8c-12.51 0-23.331 7.17-28.597 17.63l10.691 8.29C24.611 26.356 31.665 20.727 40 20.727Z"/></g></svg>
